public/svg/tv.svg

<svg stroke="currentColor" fill="currentColor" stroke-width="0" version="1.1" viewBox="0 0 16 16" height="1em"
    width="1em" xmlns="http://www.w3.org/2000/svg">
    <path
        d="M15.331 4.502c-1.388-0.199-2.865-0.344-4.407-0.425l2.576-2.576-1-1-3.509 3.509c-0.328-0.006-0.659-0.009-0.991-0.009v0l-4-4-1 1 3.034 3.034c-1.889 0.066-3.693 0.227-5.365 0.467-0.43 1.683-0.669 3.543-0.669 5.498s0.239 3.815 0.669 5.498c2.244 0.323 4.724 0.502 7.331 0.502s5.087-0.179 7.331-0.502c0.43-1.683 0.669-3.543 0.669-5.498s-0.239-3.815-0.669-5.498zM13.498 13.666c-1.683 0.215-3.543 0.334-5.498 0.334s-3.815-0.119-5.498-0.334c-0.323-1.122-0.502-2.362-0.502-3.666s0.179-2.543 0.502-3.666c1.683-0.215 3.543-0.334 5.498-0.334s3.815 0.119 5.498 0.334c0.323 1.122 0.502 2.362 0.502 3.666s-0.179 2.543-0.502 3.666z">
    </path>
</svg>

<svg stroke="#fff" fill="#fff" stroke-width="0" viewBox="0 0 16 16" height="1em" width="1em"
    xmlns="http://www.w3.org/2000/svg">
    <path
        d="M15.331 4.502a49.408 49.408 0 00-4.407-.425L13.5 1.501l-1-1L8.991 4.01A54.24 54.24 0 008 4.001l-4-4-1 1 3.034 3.034a50.304 50.304 0 00-5.365.467C.239 6.185 0 8.045 0 10s.239 3.815.669 5.498C2.913 15.821 5.393 16 8 16s5.087-.179 7.331-.502c.43-1.683.669-3.543.669-5.498s-.239-3.815-.669-5.498zm-1.833 9.164C11.815 13.881 9.955 14 8 14s-3.815-.119-5.498-.334C2.179 12.544 2 11.304 2 10s.179-2.543.502-3.666C4.185 6.119 6.045 6 8 6s3.815.119 5.498.334C13.821 7.456 14 8.696 14 10s-.179 2.543-.502 3.666z"
        stroke="none" />
</svg>
